resources/svg/major-text-block.svg

<svg xmlns="http://www.w3.org/2000/svg" viewBox="0 0 20 20" fill="currentColor"><path fill-rule="evenodd" d="M2.5 1a1.5 1.5 0 0 0-1.5 1.5v15a1.5 1.5 0 0 0 1.5 1.5h15a1.5 1.5 0 0 0 1.5-1.5v-15a1.5 1.5 0 0 0-1.5-1.5h-15zm13.5 4h-12v2h12v-2zm-12 4h12v2h-12v-2zm6 4h-6v2h6v-2z"/></svg>

<svg xmlns="http://www.w3.org/2000/svg" viewBox="0 0 20 20" fill="currentColor"><path fill-rule="evenodd" d="M2.5 1A1.5 1.5 0 0 0 1 2.5v15A1.5 1.5 0 0 0 2.5 19h15a1.5 1.5 0 0 0 1.5-1.5v-15A1.5 1.5 0 0 0 17.5 1h-15zM16 5H4v2h12V5zM4 9h12v2H4V9zm6 4H4v2h6v-2z"/></svg>
